static/assets/img/icons/theme/communication/forward.svg

<svg height="24" viewBox="0 0 24 24" width="24" xmlns="http://www.w3.org/2000/svg"><g fill="none" fill-rule="evenodd"><path d="m0 0h24v24h-24z" opacity="0"/><path d="m12.6571817 10v-4.32986712c0-.41421356-.3357864-.75-.75-.75-.1836856 0-.3609845.06740893-.4982729.18944301l-7.15722719 6.36197971c-.30958707.2751885-.33747262.7492428-.06228411 1.0588299.00975951.0109795.0198395.0216698.03022691.0320572l7.15722719 7.1572272c.2928932.2928932.767767.2928932 1.0606602 0 .1406523-.1406523.2196699-.3314177.2196699-.5303301v-4.1893398c1.3471873-.0811711 4.1776283-.0842022 8.4913229-.0090931l.0000005-.0000275c.2760853.0048072.5037937-.2151073.5086008-.4911926.0000505-.0029011.0000758-.0058026.0000758-.0087041l.0000535-3.9859642c0-.276172-.2238816-.5000536-.5000535-.5000536-.0016168 0-.0032336.0000079-.0048503.0000235-5.1307775.049769-7.9624941.0481062-8.4951497-.0049884z" fill="#000" fill-rule="nonzero" transform="matrix(-1 0 0 1 25.657182 0)"/></g></svg>

<svg width="24px" height="24px" viewBox="0 0 24 24" version="1.1" xmlns="http://www.w3.org/2000/svg" xmlns:xlink="http://www.w3.org/1999/xlink">
    <title>Icon For Forward</title>
    <g stroke="none" stroke-width="1" fill="none" fill-rule="evenodd">
        <rect opacity="0" x="0" y="0" width="24" height="24"></rect>
        <path d="M12.6571817,10 L12.6571817,5.67013288 C12.6571817,5.25591932 12.3213953,4.92013288 11.9071817,4.92013288 C11.7234961,4.92013288 11.5461972,4.98754181 11.4089088,5.10957589 L4.25168161,11.4715556 C3.94209454,11.7467441 3.91420899,12.2207984 4.1893975,12.5303855 C4.19915701,12.541365 4.209237,12.5520553 4.21962441,12.5624427 L11.3768516,19.7196699 C11.6697448,20.0125631 12.1446186,20.0125631 12.4375118,19.7196699 C12.5781641,19.5790176 12.6571817,19.3882522 12.6571817,19.1893398 L12.6571817,15 C14.004369,14.9188289 16.83481,14.9157978 21.1485046,14.9909069 L21.1485051,14.9908794 C21.4245904,14.9956866 21.6522988,14.7757721 21.6571059,14.4996868 C21.6571564,14.4967857 21.6571817,14.4938842 21.6571817,14.4909827 L21.6572352,10.5050185 C21.6572352,10.2288465 21.4333536,10.0049649 21.1571817,10.0049649 C21.1555649,10.0049649 21.1539481,10.0049728 21.1523314,10.0049884 C16.0215539,10.0547574 13.1898373,10.0530946 12.6571817,10 Z" fill="#000000" fill-rule="nonzero" transform="translate(12.828591, 12.429736) scale(-1, 1) translate(-12.828591, -12.429736) "></path>
    </g>
</svg>
